api/icons/Icons8 Logo.svg

<svg width="101" height="26" viewBox="0 0 101 26" fill="none" xmlns="http://www.w3.org/2000/svg">
<path d="M13 0H0V26H13V0Z" fill="#1FB141"/>
<path d="M19.5 13C21.2239 13 22.8772 12.3152 24.0962 11.0962C25.3152 9.87721 26 8.22391 26 6.5C26 4.77609 25.3152 3.12279 24.0962 1.90381C22.8772 0.684819 21.2239 0 19.5 0C17.7761 0 16.1228 0.684819 14.9038 1.90381C13.6848 3.12279 13 4.77609 13 6.5C13 8.22391 13.6848 9.87721 14.9038 11.0962C16.1228 12.3152 17.7761 13 19.5 13ZM19.5 26C21.2239 26 22.8772 25.3152 24.0962 24.0962C25.3152 22.8772 26 21.2239 26 19.5C26 17.7761 25.3152 16.1228 24.0962 14.9038C22.8772 13.6848 21.2239 13 19.5 13C17.7761 13 16.1228 13.6848 14.9038 14.9038C13.6848 16.1228 13 17.7761 13 19.5C13 21.2239 13.6848 22.8772 14.9038 24.0962C16.1228 25.3152 17.7761 26 19.5 26V26Z" fill="#1FB141"/>
<path d="M38.8232 21H35.6006V5.35938H38.8232V21ZM46.4502 18.7119C47.0231 18.7119 47.4886 18.5544 47.8467 18.2393C48.2048 17.9242 48.391 17.5052 48.4053 16.9824H51.3164C51.3092 17.7702 51.0944 18.4935 50.6719 19.1523C50.2493 19.804 49.6693 20.3125 48.9316 20.6777C48.2012 21.0358 47.3919 21.2148 46.5039 21.2148C44.8424 21.2148 43.5319 20.6885 42.5723 19.6357C41.6126 18.5758 41.1328 17.1149 41.1328 15.2529V15.0488C41.1328 13.2585 41.609 11.8298 42.5615 10.7627C43.514 9.69564 44.821 9.16211 46.4824 9.16211C47.9362 9.16211 49.0999 9.57747 49.9736 10.4082C50.8545 11.2318 51.3021 12.3311 51.3164 13.7061H48.4053C48.391 13.1045 48.2048 12.6175 47.8467 12.2451C47.4886 11.8656 47.016 11.6758 46.4287 11.6758C45.7054 11.6758 45.1576 11.9408 44.7852 12.4707C44.4199 12.9935 44.2373 13.8457 44.2373 15.0273V15.3496C44.2373 16.5456 44.4199 17.4049 44.7852 17.9277C45.1504 18.4505 45.7054 18.7119 46.4502 18.7119ZM52.6055 15.0811C52.6055 13.9281 52.8275 12.9004 53.2715 11.998C53.7155 11.0957 54.3529 10.3975 55.1836 9.90332C56.0215 9.40918 56.9919 9.16211 58.0947 9.16211C59.6631 9.16211 60.9414 9.64193 61.9297 10.6016C62.9251 11.5612 63.4801 12.8646 63.5947 14.5117L63.6162 15.3066C63.6162 17.0898 63.1185 18.5221 62.123 19.6035C61.1276 20.6777 59.792 21.2148 58.1162 21.2148C56.4404 21.2148 55.1012 20.6777 54.0986 19.6035C53.1032 18.5293 52.6055 17.0684 52.6055 15.2207V15.0811ZM55.71 15.3066C55.71 16.4095 55.9176 17.2546 56.333 17.8418C56.7484 18.4219 57.3428 18.7119 58.1162 18.7119C58.8682 18.7119 59.4554 18.4255 59.8779 17.8525C60.3005 17.2725 60.5117 16.3486 60.5117 15.0811C60.5117 13.9997 60.3005 13.1618 59.8779 12.5674C59.4554 11.973 58.861 11.6758 58.0947 11.6758C57.3356 11.6758 56.7484 11.973 56.333 12.5674C55.9176 13.1546 55.71 14.0677 55.71 15.3066ZM68.3857 9.37695L68.4824 10.7197C69.3132 9.68132 70.4268 9.16211 71.8232 9.16211C73.055 9.16211 73.9717 9.52376 74.5732 10.2471C75.1748 10.9704 75.4827 12.0518 75.4971 13.4912V21H72.3926V13.5664C72.3926 12.9076 72.2493 12.4313 71.9629 12.1377C71.6764 11.8369 71.2002 11.6865 70.5342 11.6865C69.6605 11.6865 69.0052 12.0589 68.5684 12.8037V21H65.4639V9.37695H68.3857ZM84.1553 17.7881C84.1553 17.4085 83.9655 17.1113 83.5859 16.8965C83.2135 16.6745 82.612 16.4775 81.7812 16.3057C79.0169 15.7256 77.6348 14.5511 77.6348 12.7822C77.6348 11.751 78.0609 10.8916 78.9131 10.2041C79.7725 9.50944 80.8932 9.16211 82.2754 9.16211C83.7507 9.16211 84.9287 9.50944 85.8096 10.2041C86.6976 10.8988 87.1416 11.8011 87.1416 12.9111H84.0371C84.0371 12.4671 83.8939 12.1019 83.6074 11.8154C83.321 11.5218 82.8734 11.375 82.2646 11.375C81.7419 11.375 81.3372 11.4932 81.0508 11.7295C80.7643 11.9658 80.6211 12.2666 80.6211 12.6318C80.6211 12.9756 80.7822 13.2549 81.1045 13.4697C81.4339 13.6774 81.9854 13.86 82.7588 14.0176C83.5322 14.168 84.1839 14.3398 84.7139 14.5332C86.3538 15.1348 87.1738 16.1768 87.1738 17.6592C87.1738 18.7191 86.7191 19.5785 85.8096 20.2373C84.9001 20.889 83.7256 21.2148 82.2861 21.2148C81.3122 21.2148 80.4456 21.043 79.6865 20.6992C78.9346 20.3483 78.3438 19.8721 77.9141 19.2705C77.4844 18.6618 77.2695 18.0065 77.2695 17.3047H80.2129C80.2415 17.8561 80.4456 18.2786 80.8252 18.5723C81.2048 18.8659 81.7132 19.0127 82.3506 19.0127C82.945 19.0127 83.3926 18.9017 83.6934 18.6797C84.0013 18.4505 84.1553 18.1533 84.1553 17.7881ZM99.248 9.5166C99.248 10.2757 99.0583 10.9489 98.6787 11.5361C98.2992 12.1234 97.7764 12.5924 97.1104 12.9434C97.8695 13.3086 98.471 13.8135 98.915 14.458C99.359 15.0954 99.5811 15.8473 99.5811 16.7139C99.5811 18.1032 99.1084 19.2025 98.1631 20.0117C97.2178 20.8138 95.9323 21.2148 94.3066 21.2148C92.681 21.2148 91.3919 20.8102 90.4395 20.001C89.487 19.1917 89.0107 18.096 89.0107 16.7139C89.0107 15.8473 89.2327 15.0918 89.6768 14.4473C90.1208 13.8027 90.7188 13.3014 91.4707 12.9434C90.8047 12.5924 90.2819 12.1234 89.9023 11.5361C89.5299 10.9489 89.3438 10.2757 89.3438 9.5166C89.3438 8.18457 89.7878 7.12467 90.6758 6.33691C91.5638 5.54199 92.7705 5.14453 94.2959 5.14453C95.8141 5.14453 97.0173 5.53841 97.9053 6.32617C98.8005 7.10677 99.248 8.17025 99.248 9.5166ZM96.4658 16.4883C96.4658 15.8079 96.2689 15.2637 95.875 14.8555C95.4811 14.4473 94.9512 14.2432 94.2852 14.2432C93.6263 14.2432 93.0999 14.4473 92.7061 14.8555C92.3122 15.2565 92.1152 15.8008 92.1152 16.4883C92.1152 17.1543 92.3086 17.6914 92.6953 18.0996C93.082 18.5078 93.6191 18.7119 94.3066 18.7119C94.9798 18.7119 95.5062 18.515 95.8857 18.1211C96.2725 17.7272 96.4658 17.1829 96.4658 16.4883ZM96.1436 9.66699C96.1436 9.05827 95.9824 8.57129 95.6602 8.20605C95.3379 7.83366 94.8831 7.64746 94.2959 7.64746C93.7158 7.64746 93.2646 7.8265 92.9424 8.18457C92.6201 8.54264 92.459 9.03678 92.459 9.66699C92.459 10.29 92.6201 10.7913 92.9424 11.1709C93.2646 11.5505 93.7194 11.7402 94.3066 11.7402C94.8939 11.7402 95.3451 11.5505 95.6602 11.1709C95.9824 10.7913 96.1436 10.29 96.1436 9.66699Z" fill="black"/>
</svg>

<svg fill="none" height="26" width="101" xmlns="http://www.w3.org/2000/svg"><path d="m13 0h-13v26h13zm6.5 13a6.5 6.5 0 1 0 0-13 6.5 6.5 0 0 0 0 13zm0 13a6.5 6.5 0 1 0 0-13 6.5 6.5 0 0 0 0 13z" fill="#1fb141"/><path d="m38.823 21h-3.222v-15.64h3.222zm7.627-2.288c.573 0 1.039-.158 1.397-.473s.544-.734.558-1.257h2.911a4.01 4.01 0 0 1 -.644 2.17 4.297 4.297 0 0 1 -1.74 1.526c-.73.358-1.54.537-2.428.537-1.662 0-2.972-.526-3.932-1.58-.96-1.06-1.44-2.52-1.44-4.382v-.204c0-1.79.477-3.22 1.43-4.286.952-1.067 2.259-1.6 3.92-1.6 1.454 0 2.618.414 3.492 1.245.88.824 1.328 1.923 1.342 3.298h-2.91c-.015-.601-.201-1.088-.56-1.46-.357-.38-.83-.57-1.417-.57-.724 0-1.271.265-1.644.795-.365.522-.548 1.375-.548 2.556v.323c0 1.196.183 2.055.548 2.578s.92.784 1.665.784zm6.155-3.63c0-1.154.223-2.182.667-3.084s1.08-1.6 1.912-2.095c.838-.494 1.808-.74 2.91-.74 1.57 0 2.847.479 3.836 1.439.995.96 1.55 2.263 1.665 3.91l.021.795c0 1.783-.498 3.215-1.493 4.296-.995 1.075-2.331 1.612-4.007 1.612s-3.015-.537-4.017-1.611c-.996-1.075-1.493-2.536-1.493-4.383v-.14zm3.105.225c0 1.103.208 1.948.623 2.535.415.58 1.01.87 1.783.87.752 0 1.34-.287 1.762-.86.422-.58.634-1.503.634-2.77 0-1.082-.212-1.92-.634-2.515-.423-.594-1.017-.891-1.783-.891-.76 0-1.347.297-1.762.891-.415.588-.623 1.5-.623 2.74zm12.676-5.93.096 1.343c.831-1.039 1.945-1.558 3.341-1.558 1.232 0 2.149.362 2.75 1.085.602.723.91 1.805.924 3.244v7.509h-3.104v-7.434c0-.658-.144-1.135-.43-1.428-.287-.301-.763-.451-1.429-.451-.874 0-1.529.372-1.966 1.117v8.196h-3.104v-11.623zm15.77 8.411c0-.38-.19-.677-.57-.892-.373-.222-.974-.419-1.805-.59-2.764-.58-4.146-1.755-4.146-3.524 0-1.031.426-1.89 1.278-2.578.86-.695 1.98-1.042 3.362-1.042 1.476 0 2.654.347 3.535 1.042.888.695 1.332 1.597 1.332 2.707h-3.105c0-.444-.143-.81-.43-1.096-.286-.293-.734-.44-1.342-.44-.523 0-.928.118-1.214.354-.287.237-.43.538-.43.903 0 .344.161.623.484.838.329.207.88.39 1.654.548.773.15 1.425.322 1.955.515 1.64.602 2.46 1.644 2.46 3.126 0 1.06-.455 1.92-1.364 2.578-.91.652-2.084.978-3.524.978-.974 0-1.84-.172-2.6-.516-.751-.35-1.342-.827-1.772-1.429-.43-.608-.645-1.264-.645-1.965h2.944c.029.551.233.974.612 1.267.38.294.888.44 1.526.44.594 0 1.042-.11 1.342-.332.308-.23.462-.527.462-.892zm15.092-8.271c0 .759-.19 1.432-.57 2.02a4.098 4.098 0 0 1 -1.568 1.406c.76.366 1.361.87 1.805 1.515.444.637.666 1.39.666 2.256 0 1.39-.473 2.489-1.418 3.298-.945.802-2.23 1.203-3.856 1.203s-2.915-.405-3.868-1.215c-.952-.81-1.428-1.905-1.428-3.287 0-.867.222-1.622.666-2.267a4.453 4.453 0 0 1 1.794-1.504 4.099 4.099 0 0 1 -1.569-1.407c-.372-.587-.558-1.26-.558-2.02 0-1.331.444-2.391 1.332-3.18.888-.794 2.094-1.191 3.62-1.191 1.518 0 2.721.393 3.61 1.181.894.78 1.342 1.844 1.342 3.19zm-2.782 6.971c0-.68-.197-1.224-.591-1.633-.394-.408-.924-.612-1.59-.612-.659 0-1.185.204-1.579.612-.394.402-.59.946-.59 1.633 0 .666.193 1.203.58 1.612.386.408.923.612 1.61.612.674 0 1.2-.197 1.58-.59.386-.395.58-.94.58-1.634zm-.322-6.821c0-.609-.162-1.096-.484-1.461-.322-.372-.777-.559-1.364-.559-.58 0-1.031.18-1.354.538-.322.358-.483.852-.483 1.482 0 .623.161 1.124.483 1.504.323.38.777.57 1.365.57.587 0 1.038-.19 1.353-.57.322-.38.484-.881.484-1.504z" fill="#000"/></svg>
